X:1
T:Someone’s Last Call
T:Someone’s Last Call
T:Aranged by Clarence Board Strouse
T:Edna Randolph Worrell, 1911
T:Public Domain Courtesy of the Cyber Hymnal™
T:Public Domain Courtesy of the Cyber Hymnal™
C:Aranged by Clarence Board Strouse
Z:Public Domain
Z:Courtesy of the Cyber Hymnal™
%%score ( 1 2 ) ( 3 4 )
L:1/8
M:6/8
K:Eb
V:1 treble 
V:2 treble 
V:3 bass 
V:4 bass 
V:1
 [GB]3 [GB]3 | B=AB [_Ac]2 [FB] | ([EG]3 G2 A) | [EG]3- [EG]2 z | [GB]3 [GB]3 | B=AB [_Ac]2 [FB] | %6
w: 1.~Come, O|come to the bless- èd|Sav- * *|ior. *|List, O|list to His lov- ing|
w: 2.~Deep, deep|deep in the heart there|whis- * *|pers *|God’s own|voice to each way- ward|
w: 3.~Long, long,|long have you tried to|sti- * *|fle *|Yearn- ings|sweet to a life more|
w: 4.~Now, now,|now as the Spir- it|stirs * *|you, *|Hard- en|not your fast melt- ing|
 [EG]3- [EG]2 z | [Ge]3 [Ge]2 [Ge] | [Gd]3 d3 | [Ec][Ec][Ec] (cd)[Ec] | [EB]3- [EB]2 [EG] | %11
w: call. *|Of- fer- ing|par- don,|Par- don from sin * to|all; * O|
w: child; *|Heed it! O|heed it!|Be no more sin * be-|guiled, * O|
w: pure; *|Quench them no|long- er|But in God rest * se-|cure; * O|
w: heart; *|Take, take sal-|va- tion|Else shall your chance * de-|part; * O|
 [FB]3- [FB]2 [FA] | [EG]3 [Ec][Ed][Ee] | [Ge]2 [GB] [A_c]2 [FB] | [EG]3- [EG]2 z || %15
w: come, * He|gives par- don from|sin to all, to|all. *|
w: heed * His|voice, be now no|more be- guiled, be-|guiled. *|
w: strive * no|more, but in God|rest se- cure, se-|cure. *|
w: take * it|now, else shall your|chance de- part, de-|part. *|
"^Refrain" [Ge]3 [Ge]2 [Ge] | [Gd]3 d3 | [Ec][Ec][Ec] [Ec][Ec][Ec] | [EB]3- [EB]2 [EG] | %19
w: ||||
w: Come, come to|Je- sus,|Come ere this mo- ment takes|flight; * It|
w: ||||
w: ||||
 [FB]3- [FB]2 [FA] | [EG]3 [Ac][Ad][Ae] | [Ge]2 [EB] [D_c]2 [DB] | E3- E2 z |] %23
w: ||||
w: may * be|now some- one’s last|call, last call to-|night. *|
w: ||||
w: ||||
V:2
 x6 | A3 x3 | x3 E3 | x6 | x6 | A3 x3 | x6 | x6 | x3 (G2 F) | x3 E2 x | x6 | x6 | x6 | x6 | x6 || %15
 x6 | x3 (G2 F) | x6 | x6 | x6 | x6 | x6 | E3- E2 x |] %23
V:3
 [E,E]3 [E,E]3 | [F,D]3 [B,,D]2 [D,B,] | [E,B,]3 (B,2 C) | [E,B,]3- [E,B,]2 z | [E,E]3 [B,,E]3 | %5
 [F,D]3 [B,,D]2 [D,C] | [E,B,]3- [E,B,]2 z | [C,C]3 [C,C]2 [C,C] | [G,,=B,]3 [G,,B,]3 | %9
 [A,,C][A,,A,][A,,A,] [A,,A,]2 [A,,A,] | [E,G,]3- [E,G,]2 [E,B,] | [D,B,]3 D3 | %12
 [C,E]3 [A,,E][A,,D][A,,C] | [B,,B,]2 [B,,E] [B,,D]2 [D,B,] | [E,B,]3- [E,B,]2 z || %15
 [C,C]3 [C,C]2 [C,C] | [G,,=B,]3 [G,,B,]3 | [A,,C][A,,A,][A,,A,] [A,,A,][A,,A,][C,A,] | %18
 [E,G,]3- [E,G,]2 [E,B,] | [D,B,]3 D3 | [C,E]3 [A,,E][A,,D][A,,C] | %21
 [B,,B,]2 [B,,G,] [B,,A,]2 [B,,A,] | [E,G,]3- [E,G,]2 z |] %23
V:4
 x6 | x6 | x3 B,,3 | x6 | x6 | x6 | x6 | x6 | x6 | x6 | x6 | x3 B,,2 =B,, | x6 | x6 | x6 || x6 | %16
 x6 | x6 | x6 | x3 B,,2 =B,, | x6 | x6 | x6 |] %23

